assets/fc/fc-nook.svg

<svg xmlns="http://www.w3.org/2000/svg" width="100%" height="100%" viewBox="0 0 48 48"><path fill="#90A4AE" d="M8 39V9c0-3.3 2.7-6 6-6h20c3.3 0 6 2.7 6 6v30c0 3.3-2.7 6-6 6H14c-3.3 0-6-2.7-6-6z"/><path fill="#ECEFF1" d="M34 7H14c-1.1 0-2 .9-2 2v26c0 1.1.9 2 2 2h20c1.1 0 2-.9 2-2V9c0-1.1-.9-2-2-2z"/><g fill="#B0BEC5"><path d="M16 12h16v3H16zM16 19h16v2H16zM16 23h12v2H16zM16 27h16v2H16zM16 31h12v2H16z"/></g><path fill="none" stroke="#eee" stroke-miterlimit="10" stroke-width="2" d="M22 43v-1c0-1.1.9-2 2-2h0c1.1 0 2 .9 2 2v1"/></svg>

<svg xmlns="http://www.w3.org/2000/svg" width="100%" height="100%" viewBox="0 0 48 48"><path fill="#90A4AE" d="M8,39V9c0-3.3,2.7-6,6-6h20c3.3,0,6,2.7,6,6v30c0,3.3-2.7,6-6,6H14C10.7,45,8,42.3,8,39z"/><path fill="#ECEFF1" d="M34,7H14c-1.1,0-2,0.9-2,2v26c0,1.1,0.9,2,2,2h20c1.1,0,2-0.9,2-2V9C36,7.9,35.1,7,34,7z"/><g fill="#B0BEC5"><path d="M16 12H32V15H16zM16 19H32V21H16zM16 23H28V25H16zM16 27H32V29H16zM16 31H28V33H16z"/></g><path fill="none" stroke="#eee" stroke-miterlimit="10" stroke-width="2" d="M22,43v-1c0-1.1,0.9-2,2-2h0c1.1,0,2,0.9,2,2v1"/></svg>
